X:1
T:Ortonville, CM
T:Ortonville, CM
T:Thomas Hastings, 1837
T:Public Domain Courtesy of the Cyber Hymnal™
C:Thomas Hastings, 1837
Z:Public Domain
Z:Courtesy of the Cyber Hymnal™
%%score 1 ( 2 3 )
L:1/8
Q:1/4=150
M:6/4
K:G
V:1 treble 
V:2 bass 
V:3 bass 
V:1
 [B,D]2 | [DG]4 [DG]2 [DA]4 [DA]2 | [DB]4 [CA]2 [B,G]4 [B,D]2 | [CE]4 [CE]2 [EG]4 [CE]2 | %4
 [B,D]6- [B,D]4 [B,D]2 | [DG]4 [DG]2 [DA]4 [DA]2 | [DB]4 [Dc]2 [Dd]4 ([DB][CA]) | %7
 [B,G]4 [B,G]2 [CA]4 [CA]2 | [B,G]6- [B,G]4 [B,G]2 | [DB]4 [DB]2 [DA]4 [CA]2 | [B,G]6- [B,G]4 |] %11
V:2
 [G,,G,]2 | [B,,G,]4 [B,,G,]2 [D,F,]4 [D,F,]2 | G,4 [D,F,]2 [G,,G,]4 [G,,G,]2 | %3
 [C,G,]4 [C,G,]2 [C,G,]4 [C,G,]2 | [G,,G,]6- [G,,G,]4 [G,,G,]2 | %5
 [B,,G,]4 [B,,G,]2 [D,F,]4 [D,F,]2 | G,4 [G,A,]2 [G,B,]4 [G,,G,]2 | [G,,D,]4 [G,,D,]2 D,4 D,2 | %8
 [G,,D,]6- [G,,D,]4 [G,,G,]2 | G,4 G,2 [D,F,]4 [D,F,]2 | [G,,G,]6- [G,,G,]4 |] %11
V:3
 x2 | x12 | G,4 x8 | x12 | x12 | x12 | G,4 x8 | x6 D,4 D,2 | x12 | G,4 G,2 x6 | x10 |] %11

